src/assets/images/currencies/doge.svg

<svg height="32" viewBox="0 0 32 32" width="32" xmlns="http://www.w3.org/2000/svg"><path d="m23.7779314 16.1286565c0 8.3741541-7.3245972 7.8765426-7.5280582 7.8611047l-5.3614907-.0003392v-7.1218911h-1.8883825v-1.7446015h1.8882345v-7.1223349l4.9138779-.00028523c1.7504944.01102159 7.975819.36271276 7.975819 8.12834723zm-7.7586987-5.1727124h-2.113521v4.1668374h3.3251566v1.7446014h-3.3251566v4.1665835h2.2170669c.5696507 0 4.6767273.0643045 4.670374-4.8477679-.0063681-4.9120724-3.9834205-5.2302544-4.7739199-5.2302544z" fill="#ff9580" fill-rule="evenodd"/></svg>

<svg xmlns="http://www.w3.org/2000/svg" width="32" height="32" viewBox="0 0 32 32">
  <path fill="#FF9580" fill-rule="evenodd" d="M23.7779314,16.1286565 C23.7779314,24.5028106 16.4533342,24.0051991 16.2498732,23.9897612 L10.8883825,23.989422 L10.8883825,16.8675309 L9,16.8675309 L9,15.1229294 L10.8882345,15.1229294 L10.8882345,8.0005945 L15.8021124,8.00030927 C17.5526068,8.01133086 23.7779314,8.36302203 23.7779314,16.1286565 Z M16.0192327,10.9559441 L13.9057117,10.9559441 L13.9057117,15.1227815 L17.2308683,15.1227815 L17.2308683,16.8673829 L13.9057117,16.8673829 L13.9057117,21.0339664 L16.1227786,21.0339664 C16.6924293,21.0339664 20.7995059,21.0982709 20.7931526,16.1861985 C20.7867845,11.2741261 16.8097321,10.9559441 16.0192327,10.9559441 Z"/>
</svg>
